logos/carbide.svg

<?xml version="1.0" encoding="UTF-8" standalone="no"?>
<svg width="256px" height="313px" viewBox="0 0 256 313" version="1.1" xmlns="http://www.w3.org/2000/svg" xmlns:xlink="http://www.w3.org/1999/xlink" preserveAspectRatio="xMidYMid">
    <g>
        <path d="M246.241931,88.0343644 L178.487218,133.714375 C164.228418,113.707917 133.917514,111.196601 116.390845,128.51837 C99.8414039,144.871686 101.499844,172.364802 119.818084,186.78122 C139.817535,202.519842 170.660811,195.679402 181.744582,173.102085 L256,207.605518 C243.047625,237.681752 215.514243,272.575717 154.818871,275.216625 L157.836313,312.271651 C106.932262,304.909332 60.3643681,272.349805 44.0618365,223.752186 L12.5583363,244.765621 C2.88959033,221.060492 -0.600683751,194.964885 3.37644566,169.701129 C7.22046985,145.270975 18.0310183,123.362644 34.4666551,104.666134 L0,88.6508092 C16.1816912,69.749403 35.3983184,54.2314373 58.8880435,44.6520169 C82.9609591,34.8344218 110.046016,31.7189215 135.64776,37.0550264 L132.632101,0 C183.292712,7.33079741 229.871112,39.6749199 246.241931,88.0343644" fill="#4B608E"></path>
    </g>
</svg>

<svg preserveAspectRatio="xMidYMid" viewBox="0 0 256 313" xmlns="http://www.w3.org/2000/svg">
  <path fill="#4B608E" d="m246.242 88.034-67.755 45.68c-14.259-20.006-44.57-22.517-62.096-5.196-16.55 16.354-14.891 43.847 3.427 58.263 20 15.739 50.843 8.898 61.927-13.679L256 207.606c-12.952 30.076-40.486 64.97-101.181 67.61l3.017 37.056c-50.904-7.363-97.472-39.922-113.774-88.52l-31.504 21.014C2.89 221.06-.6 194.965 3.376 169.7c3.844-24.43 14.655-46.338 31.09-65.035L0 88.651c16.182-18.902 35.398-34.42 58.888-43.999 24.073-9.818 51.158-12.933 76.76-7.597L132.632 0c50.66 7.33 97.24 39.675 113.61 88.034"/>
</svg>
